X: 1721
T: the Bridge of Athlone
R: hornpipe, reel
%S: s:4 b:16(4+4+4+4)
B: O'Neill's 1850 #1721
O: J.O'Neill
Z: Bob Safranek, rjs@gsp.org
M: C|
L: 1/8
K: Bb
(3FGA \
| B2B2 F>Bd>B | c>Bc>d e>dc>B | A>Bc>d c>BA>G | (3FAc f>g f>ed>c |
| B>dF>B (3DFB d>B | e>gc>e (3FAc e>c | (3BAc (3BAG F2G>A | B2d2 B2 :|
|: (A>B) \
| c>fa>g (3feg f>e | d>fb>a g2g>f | (3edc (3dcB (3afe (3dcB | (3FAc f>g f>ed>c |
| B>dF>B (3DFB f>B | e>gc>e (3FAc e>c | (3BAc (3BAG F2G>A | B2d2 B2 :|
